svgs/solid/typewriter.svg

<svg xmlns="http://www.w3.org/2000/svg" viewBox="0 0 512 512"><!--! Font Awesome Pro 6.0.0 by @fontawesome - https://fontawesome.com License - https://fontawesome.com/license (Commercial License) Copyright 2022 Fonticons, Inc. --><path d="M480 192h-32V77.26c0-8.488-3.373-16.63-9.375-22.63l-45.26-45.26C387.4 3.369 379.2 0 370.8 0H96C78.4 0 64 14.4 64 32v160H32C14.4 192 0 206.4 0 224v32c0 17.62 14.38 32 32 32v176C32 490.5 53.49 512 80 512h352c26.51 0 48-21.49 48-48V288c17.62 0 32-14.38 32-32V224C512 206.4 497.6 192 480 192zM128 64h192v48C320 120.9 327.1 128 336 128H384v64h-18.75c-8.5 0-16.62 3.375-22.62 9.375l-13.25 13.25C323.4 220.6 315.3 224 306.8 224h-101.5c-8.5 0-16.62-3.375-22.62-9.375L169.4 201.4C163.4 195.4 155.3 192 146.8 192H128V64zM368 296v16c0 4.375-3.625 8-8 8h-16c-4.375 0-8-3.625-8-8v-16C336 291.6 339.6 288 344 288h16C364.4 288 368 291.6 368 296zM304 360c0-4.375 3.625-8 8-8h16c4.375 0 8 3.625 8 8v16c0 4.375-3.625 8-8 8h-16c-4.375 0-8-3.625-8-8V360zM296 320h-16c-4.375 0-8-3.625-8-8v-16C272 291.6 275.6 288 280 288h16c4.375 0 8 3.625 8 8v16C304 316.4 300.4 320 296 320zM240 360C240 355.6 243.6 352 248 352h16c4.375 0 8 3.625 8 8v16c0 4.375-3.625 8-8 8h-16c-4.375 0-8-3.625-8-8V360zM232 320h-16C211.6 320 208 316.4 208 312v-16C208 291.6 211.6 288 216 288h16C236.4 288 240 291.6 240 296v16C240 316.4 236.4 320 232 320zM176 360C176 355.6 179.6 352 184 352h16c4.375 0 8 3.625 8 8v16C208 380.4 204.4 384 200 384h-16c-4.375 0-8-3.625-8-8V360zM168 320h-16C147.6 320 144 316.4 144 312v-16C144 291.6 147.6 288 152 288h16C172.4 288 176 291.6 176 296v16C176 316.4 172.4 320 168 320zM104 320h-16C83.63 320 80 316.4 80 312v-16C80 291.6 83.63 288 88 288h16C108.4 288 112 291.6 112 296v16C112 316.4 108.4 320 104 320zM136 384h-16c-4.375 0-8-3.625-8-8v-16C112 355.6 115.6 352 120 352h16c4.375 0 8 3.625 8 8v16C144 380.4 140.4 384 136 384zM368 440c0 4.375-3.625 8-8 8h-208c-4.375 0-8-3.625-8-8v-16C144 419.6 147.6 416 152 416h208c4.375 0 8 3.625 8 8V440zM400 376c0 4.375-3.625 8-8 8h-16c-4.375 0-8-3.625-8-8v-16c0-4.375 3.625-8 8-8h16c4.375 0 8 3.625 8 8V376zM432 312c0 4.375-3.625 8-8 8h-16c-4.375 0-8-3.625-8-8v-16C400 291.6 403.6 288 408 288h16c4.375 0 8 3.625 8 8V312z"/></svg>

<svg xmlns="http://www.w3.org/2000/svg" viewBox="0 0 512 512"><!-- Font Awesome Pro 5.15.3 by @fontawesome - https://fontawesome.com License - https://fontawesome.com/license (Commercial License) --><path d="M480 192h-32V77.26a32 32 0 0 0-9.38-22.64L393.38 9.38A32 32 0 0 0 370.73 0H96a32 32 0 0 0-32 32v160H32a32 32 0 0 0-32 32v32a32 32 0 0 0 32 32v160a64 64 0 0 0 64 64h320a64 64 0 0 0 64-64V288a32 32 0 0 0 32-32v-32a32 32 0 0 0-32-32zM128 64h192v48a16 16 0 0 0 16 16h48v64h-18.75a32 32 0 0 0-22.62 9.37l-13.26 13.26a32 32 0 0 1-22.62 9.37h-101.5a32 32 0 0 1-22.62-9.37l-13.26-13.26a32 32 0 0 0-22.62-9.37H128zm240 232v16a8 8 0 0 1-8 8h-16a8 8 0 0 1-8-8v-16a8 8 0 0 1 8-8h16a8 8 0 0 1 8 8zm-64 64a8 8 0 0 1 8-8h16a8 8 0 0 1 8 8v16a8 8 0 0 1-8 8h-16a8 8 0 0 1-8-8zm-8-40h-16a8 8 0 0 1-8-8v-16a8 8 0 0 1 8-8h16a8 8 0 0 1 8 8v16a8 8 0 0 1-8 8zm-56 40a8 8 0 0 1 8-8h16a8 8 0 0 1 8 8v16a8 8 0 0 1-8 8h-16a8 8 0 0 1-8-8zm-8-40h-16a8 8 0 0 1-8-8v-16a8 8 0 0 1 8-8h16a8 8 0 0 1 8 8v16a8 8 0 0 1-8 8zm-56 40a8 8 0 0 1 8-8h16a8 8 0 0 1 8 8v16a8 8 0 0 1-8 8h-16a8 8 0 0 1-8-8zm-8-40h-16a8 8 0 0 1-8-8v-16a8 8 0 0 1 8-8h16a8 8 0 0 1 8 8v16a8 8 0 0 1-8 8zm-64 0H88a8 8 0 0 1-8-8v-16a8 8 0 0 1 8-8h16a8 8 0 0 1 8 8v16a8 8 0 0 1-8 8zm32 64h-16a8 8 0 0 1-8-8v-16a8 8 0 0 1 8-8h16a8 8 0 0 1 8 8v16a8 8 0 0 1-8 8zm232 56a8 8 0 0 1-8 8H152a8 8 0 0 1-8-8v-16a8 8 0 0 1 8-8h208a8 8 0 0 1 8 8zm32-64a8 8 0 0 1-8 8h-16a8 8 0 0 1-8-8v-16a8 8 0 0 1 8-8h16a8 8 0 0 1 8 8zm32-64a8 8 0 0 1-8 8h-16a8 8 0 0 1-8-8v-16a8 8 0 0 1 8-8h16a8 8 0 0 1 8 8z"/></svg>
